!!!!SEGMENT: pl-gd--ee-1638--002-034_marenzio-luca--motettorum-pro-festis-totius-anni-in-festo-s-thomae-quia-vidisti-me-thoma.krn
!!!cenid: 15xx:1037
!!!COM: Marenzio, Luca
!!!COM-rismID: pe30003955
!!!CDT: ~1553-1599/08/22
!!!CNT: Italian
!!!GTL: Motettorum pro festis totius anni
!!!OTL: In festo S. Thomae/Quia vidisti Me, Thoma
!!!OMV: 034
!!!PDT: 1588
!!!AGN:
!!!SMS-siglum: PL-GD
!!!SMS-shelfmark: Ee 1638
!!!SMS-variant:
!!!SMS-altvar:
!!!SMS-shelfwork: 002-034 G
!!!NIFC-rismSourceID: 990039238
!!!NIFC-islandoraID: pl-gd:57883
!!!URL-pdf-islandora: https://repozytorium.nifc.pl/islandora/object/pl-gd%3A57883/datastream/PDF/view
!!!URL-scan: https://polish.musicsources.pl/pl/lokalizacje/galeria/klocki-introligatorskie/655 @EN{Scan on Polish Music Herritage in Open Access Website} @PL{Skany w portalu Dziedzictwo Muzyki Polskiej w otwartym dostępie}
!!!ONB-nifc: UWAGA: Cantus: s. 633 (lewa), Altus: s. 481 (lewa), Tenor: s. 329 (lewa), Bassus: s. 177 (lewa)
!!!AIN: 1 alto 1 bass 1 soprn 1 tenor
!!!key:
**kern	**text	**kern	**text	**kern	**text	**kern	**text
*part4	*part4	*part3	*part3	*part2	*part2	*part1	*part1
*staff4	*staff4	*staff3	*staff3	*staff2	*staff2	*staff1	*staff1
*I"BASSUS	*	*I"TENOR	*	*I"ALTUS	*	*I"CANTUS	*
*I'B	*	*I'T	*	*I'A	*	*I'S	*
*Ibass	*	*Itenor	*	*Ialto	*	*Isoprn	*
*ICvox	*	*ICvox	*	*ICvox	*	*ICvox	*
*IG	*	*	*	*	*	*	*
*clefF3	*	*clefC3	*	*clefC2	*	*clefG2	*
*k[]	*	*k[]	*	*k[]	*	*k[]	*
*C:	*	*C:	*	*C:	*	*C:	*
*M2/2	*	*M2/2	*	*M2/2	*	*M2/2	*
*met(C|)	*	*met(C|)	*	*met(C|)	*	*met(C|)	*
=1-	=1-	=1-	=1-	=1-	=1-	=1-	=1-
!LO:TX:a:t=In feſto S. Thomę	!	!LO:TX:a:t=In feſto S. Thomę	!	!LO:TX:a:t=In feſto S. Thomę	!	!LO:TX:a:t=In feſto S. Thomę	!
1r	.	1c	QVi-	2r	.	1r	.
.	.	.	.	2c/	QVia	.	.
=2-	=2-	=2-	=2-	=2-	=2-	=2-	=2-
1r	.	2c/	-a	2d/	vi-	1r	.
.	.	2d\	vi-	2f\	-di-	.	.
=3-	=3-	=3-	=3-	=3-	=3-	=3-	=3-
1r	.	2e\	-di-	2g\	ſti	1cc	.
.	.	2c/	-ſti	2e/	me	.	.
=4-	=4-	=4-	=4-	=4-	=4-	=4-	=4-
1r	.	1f	me	1a	Tho-	2cc\	QVia
.	.	.	.	.	.	2dd\	vi-
=5-	=5-	=5-	=5-	=5-	=5-	=5-	=5-
1r	.	1e	Tho-	1g	-ma	2ee\	-di-
.	.	.	.	.	.	2cc\	ſti
=6-	=6-	=6-	=6-	=6-	=6-	=6-	=6-
1r	.	1d	-ma-	2f\	cre-	1ff	me
.	.	.	.	1a\	-di-	.	.
=7-	=7-	=7-	=7-	=7-	=7-	=7-	=7-
1r	.	2r	.	.	.	1ee	Tho-
.	.	2e\	cre-	2g\	-di-	.	.
=8-	=8-	=8-	=8-	=8-	=8-	=8-	=8-
1r	.	2f\	-di-	2a\	.	1dd	-ma
.	.	2g\	-di-	2b\	.	.	.
=9-	=9-	=9-	=9-	=9-	=9-	=9-	=9-
1r	.	2c/	ſti	2.cc\	ſti	2r	.
*	*	*	*ij	*	*	*	*
.	.	2c/	Qvi-	.	.	2ee\	cre-
.	.	.	.	4b\	.	.	.
=10-	=10-	=10-	=10-	=10-	=10-	=10-	=10-
1r	.	2d\	-a	2a\	.	2ff\	-di-
.	.	4e\	vi-	4g\	.	2gg\	-d[i]-
!	!	!LO:SIC:v:t=custos g	!	!LO:SIC:v:t=custos e	!	!	!
.	.	4f\	-di-	4f\	.	.	.
!	!	!LO:LB:g=original	!	!LO:LB:g=original	!	!	!
=11-	=11-	=11-	=11-	=11-	=11-	=11-	=11-
1C	QVi-	4g\	ſti	2e/	.	0cc	ſti
.	.	4f\	ma	.	.	.	.
*	*	*	*	*	*ij	*	*
.	.	4e\	Tho-	2g\	Qui-	.	.
.	.	4d\	-ma	.	.	.	.
=12-	=12-	=12-	=12-	=12-	=12-	=12-	=12-
2E/	-a	4c/	cre-	2g\	-a	.	.
.	.	4B/	-di-	.	.	.	.
2F/	vi-	2A/	-di-	2a\	vi-	.	.
=13-	=13-	=13-	=13-	=13-	=13-	=13-	=13-
2G\	-di-	1G	ſti	2b\	-di-	2r	.
*	*	*	*Xij	*	*	*	*ij
2E/	-ſti	.	.	2g\	-ſti	1ee\	cre-
=14-	=14-	=14-	=14-	=14-	=14-	=14-	=14-
1A	me	2r	.	1cc	me	.	.
.	.	2c/	cre-	.	.	2ff\	-di-
=15-	=15-	=15-	=15-	=15-	=15-	=15-	=15-
!	!	!	!	!	!	!LO:SIC:v:t=custos cc	!
1G	Tho-	2d\	-di-	1b	Tho-	1gg	-di-
!	!	!	!	!	!	!LO:LB:g=original	!
.	.	2e\	-di-	.	.	.	.
=16-	=16-	=16-	=16-	=16-	=16-	=16-	=16-
2F/	-ma-	2.A/	-ſti	2a\	-ma	1cc	-ſti
*	*	*	*	*	*	*	*Xij
1A\	cre-	.	.	2e/	cre-	.	.
.	.	4B/	.	.	.	.	.
=17-	=17-	=17-	=17-	=17-	=17-	=17-	=17-
.	.	4c/	.	2f\	-di-	2r	.
.	.	4d\	.	.	.	.	.
*	*	*	*ij	*	*	*	*
2G\	-di-	1e\	cre-	2g\	-di-	2b/	cre-
=18-	=18-	=18-	=18-	=18-	=18-	=18-	=18-
2A\	-di-	.	.	2c/	-ſti	2cc\	-di-
*	*	*	*	*	*Xij	*	*
2B\	.	2.d\	-di-	2g\	cre-	2dd\	-di-
=19-	=19-	=19-	=19-	=19-	=19-	=19-	=19-
1c	ſti	.	.	1e	-di-	0g	-ſti
.	.	4c/	-di-	.	.	.	.
.	.	1c\	ſti	.	.	.	.
=20-	=20-	=20-	=20-	=20-	=20-	=20-	=20-
!LO:SIC:v:t=custos G	!	!	!	!	!	!	!
1r	.	.	.	2e/	-di-	.	.
!LO:LB:g=original	!	!	!	!	!	!	!
.	.	4B/	cre-	4d/	.	.	.
.	.	4A/	-di-	4c/	.	.	.
=21-	=21-	=21-	=21-	=21-	=21-	=21-	=21-
1G	Qui-	4B/	-di-	1d	ſti	2r	.
.	.	4c/	.	.	.	.	.
.	.	4d\	.	.	.	2g/	Qui-
.	.	4B/	.	.	.	.	.
=22-	=22-	=22-	=22-	=22-	=22-	=22-	=22-
2G\	-a	1e	.	1r	.	2b/	-a
2A\	vi-	.	.	.	.	2cc\	vi-
=23-	=23-	=23-	=23-	=23-	=23-	=23-	=23-
2B\	-di-	1d	ſti	1g	Qui-	2dd\	-di-
*	*	*	*Xij	*	*	*	*
2G\	-ſti	.	.	.	.	2b/	-ſti
=24-	=24-	=24-	=24-	=24-	=24-	=24-	=24-
1c	me	2r	.	2g\	-a	1ee	me
!	!	!LO:SIC:v:t=custos d	!	!	!	!	!
*	*	*	*ij	*	*	*	*
.	.	2c/	cre-	2a\	vi-	.	.
!	!	!LO:LB:g=original	!	!	!	!	!
=25-	=25-	=25-	=25-	=25-	=25-	=25-	=25-
1B	Tho-	1d	-di-	2b\	-di-	1dd	Tho-
!	!	!	!	!LO:SIC:v:t=custos cc	!	!	!
.	.	.	.	2g\	-ſti	.	.
!	!	!	!	!LO:LB:g=original	!	!	!
=26-	=26-	=26-	=26-	=26-	=26-	=26-	=26-
1A	-ma	1e	-di-	1cc	me	2cc\	-ma
.	.	.	.	.	.	1ee\	cre-
=27-	=27-	=27-	=27-	=27-	=27-	=27-	=27-
2r	.	1g	-ſti	1b	Tho-	.	.
*	*	*	*Xij	*	*	*	*
2B\	cre-	.	.	.	.	2dd\	-di-
=28-	=28-	=28-	=28-	=28-	=28-	=28-	=28-
2c\	-di-	1r	.	1a	-ma	2ee\	-di-
2d\	-di-	.	.	.	.	2ff#X\	.
=29-	=29-	=29-	=29-	=29-	=29-	=29-	=29-
1G	-ſti	2r	.	2.g\	cre-	2gg\	ſti
.	.	2G/	Qui-	.	.	2g/	qui-
.	.	.	.	4f\	.	.	.
=30-	=30-	=30-	=30-	=30-	=30-	=30-	=30-
1r	.	2G/	-a	1e	.	2b/	-a
!	!	!	!	!	!	!LO:SIC:v:t=custos dd	!
.	.	2A/	vi-	.	.	2cc\	vi-
!	!	!	!	!	!	!LO:LB:g=original	!
=31-	=31-	=31-	=31-	=31-	=31-	=31-	=31-
1r	.	2B/	-di-	2d/	-di-	2dd\	-di-
.	.	2G/	ſti	2.g\	-di-	2b/	-ſti
=32-	=32-	=32-	=32-	=32-	=32-	=32-	=32-
2r	.	1c	me	.	.	1ee	me
.	.	.	.	4e/	.	.	.
2C/	cre-	.	.	2.a\	.	.	.
=33-	=33-	=33-	=33-	=33-	=33-	=33-	=33-
2D/	-di-	1B	Tho-	.	.	2dd\	Tho-
.	.	.	.	8g\	.	.	.
.	.	.	.	8f\	.	.	.
2E/	-di-	.	.	2g\	.	2b/	-ma
=34-	=34-	=34-	=34-	=34-	=34-	=34-	=34-
1AA	-ſti	1A	-ma	2e/	ſti	2r	.
.	.	.	.	2a\	cre-	2cc\	cre-
=35-	=35-	=35-	=35-	=35-	=35-	=35-	=35-
1r	.	2r	.	2b\	-di-	2dd\	-di-
.	.	2e\	cre-	2.cc\	-di-	2ee\	-di-
=36-	=36-	=36-	=36-	=36-	=36-	=36-	=36-
1r	.	2f\	-di-	.	.	1dd	-ſti
.	.	.	.	8b\	.	.	.
.	.	.	.	8a\	.	.	.
.	.	2g\	-di-	2b\	.	.	.
=37-	=37-	=37-	=37-	=37-	=37-	=37-	=37-
2r	.	2c/	-ſti	2cc\	ſti	2r	.
!LO:SIC:v:t=custos c	!	!	!	!	!	!	!
2c\	be-	2e\	be-	2g\	be-	2cc\	be-
!LO:LB:g=original	!	!	!	!	!	!	!
=38-	=38-	=38-	=38-	=38-	=38-	=38-	=38-
1c	-a-	1e	-a-	1g	-a-	1cc	-a-
=39-	=39-	=39-	=39-	=39-	=39-	=39-	=39-
2G\	-ti	2.d\	-ti	2.g\	-ti	2.b/	-ti
2A\	qui	.	.	.	.	.	.
!	!	!	!	!LO:SIC:v:t=custos g	!	!	!
.	.	4c/	qui	4e/	qui	4a/	qui
!	!	!	!	!LO:LB:g=original	!	!	!
=40-	=40-	=40-	=40-	=40-	=40-	=40-	=40-
!	!	!LO:SIC:v:t=custos e	!	!	!	!	!
2G\	non	2d\	non	2g\	non	2b/	non
!	!	!LO:LB:g=original	!	!	!	!	!
2E/	vi-	2e\	vi-	2g\	vi-	2cc#X\	vi-
=41-	=41-	=41-	=41-	=41-	=41-	=41-	=41-
4D/	-de-	1f	-de-	1.a	-de-	1dd	-de-
4E/	.	.	.	.	.	.	.
4F/	.	.	.	.	.	.	.
4G\	.	.	.	.	.	.	.
=42-	=42-	=42-	=42-	=42-	=42-	=42-	=42-
4A\	.	2.e\	.	.	.	0ccny	-runt
4B\	.	.	.	.	.	.	.
2.c\	.	.	.	4g\	.	.	.
.	.	4d\	.	4f\	.	.	.
=43-	=43-	=43-	=43-	=43-	=43-	=43-	=43-
.	.	0c	runt	4e/	.	.	.
4B\	.	.	.	4f#X\	.	.	.
4A\	.	.	.	2.g\	.	.	.
4G\	.	.	.	.	.	.	.
=44-	=44-	=44-	=44-	=44-	=44-	=44-	=44-
1A	.	.	.	.	.	2r	.
.	.	.	.	8f#X\	.	.	.
.	.	.	.	8e\	.	.	.
.	.	.	.	2f#X\	.	2cc\	et
=45-	=45-	=45-	=45-	=45-	=45-	=45-	=45-
1G	runt	2r	.	1g	-runt	4b/	cre-
.	.	.	.	.	.	4a/	.
.	.	2g\	et	.	.	4b/	.
!	!	!	!	!	!	!LO:SIC:v:t=custos dd	!
.	.	.	.	.	.	4cc\	.
!	!	!	!	!	!	!LO:LB:g=original	!
=46-	=46-	=46-	=46-	=46-	=46-	=46-	=46-
1r	.	2f\	cre-	1r	.	2dd\	.
.	.	2e\	-di-	.	.	4g/	di-
.	.	.	.	.	.	2cc\	-de-
=47-	=47-	=47-	=47-	=47-	=47-	=47-	=47-
1r	.	1d	-de-	2r	.	.	.
.	.	.	.	.	.	8b/	.
.	.	.	.	.	.	8a/	.
.	.	.	.	2fny\	et	2b/	.
=48-	=48-	=48-	=48-	=48-	=48-	=48-	=48-
2r	.	1c	-runt	4e/	cre-	1cc	-runt
.	.	.	.	4d/	.	.	.
2c\	et	.	.	4e/	.	.	.
.	.	.	.	4f\	.	.	.
=49-	=49-	=49-	=49-	=49-	=49-	=49-	=49-
2B-X\	cre-	1r	.	2g\	.	1r	.
2A\	-di-	.	.	4c/	-di-	.	.
.	.	.	.	2f\	-de-	.	.
=50-	=50-	=50-	=50-	=50-	=50-	=50-	=50-
1G	-de-	1r	.	.	.	1r	.
.	.	.	.	8e/	.	.	.
.	.	.	.	8d/	.	.	.
!	!	!	!	!LO:SIC:v:t=custos f	!	!	!
.	.	.	.	2e/	.	.	.
!	!	!	!	!LO:LB:g=original	!	!	!
=51-	=51-	=51-	=51-	=51-	=51-	=51-	=51-
!LO:SIC:v:t=custos F	!	!	!	!	!	!	!
2F/	-runt	2r	.	2f\	runt	2r	.
!LO:LB:g=original	!	!	!	!	!	!	!
2F/	be-	2f\	be-	2a\	be-	2cc\	be-
=52-	=52-	=52-	=52-	=52-	=52-	=52-	=52-
1F	-ati	1f	-a-	1a	-a-	1cc	-a-
=53-	=53-	=53-	=53-	=53-	=53-	=53-	=53-
2.c\	qui-	2.e\	-ti	2.g\	-ti	2.cc\	-ti
4d\	-a	4d\	qui	4f\	qui	4a/	qui
=54-	=54-	=54-	=54-	=54-	=54-	=54-	=54-
2c\	non	2e\	non	2g\	non	2cc\	non
2A\	vi-	2f#X\	vi-	2a\	vi-	2cc\	vi-
=55-	=55-	=55-	=55-	=55-	=55-	=55-	=55-
1G	-de-	1g	-de-	2d/	-de-	1b-X	-de-
.	.	.	.	2e/	.	.	.
=56-	=56-	=56-	=56-	=56-	=56-	=56-	=56-
2.F/	.	1c	runt	1f	runt	4a/	.
.	.	.	.	.	.	4g/	.
.	.	.	.	.	.	4a/	.
8E/	.	.	.	.	.	4bny/	.
8D/	.	.	.	.	.	.	.
=57-	=57-	=57-	=57-	=57-	=57-	=57-	=57-
0C	-runt	2r	.	2r	.	2cc\	-runt
!	!	!LO:SIC:v:t=custos c	!	!	!	!	!
*	*	*	*	*	*	*	*ij
.	.	2c/	be-	2cc\	be-	2ee\	be-
!	!	!LO:LB:g=original	!	!	!	!	!
=58-	=58-	=58-	=58-	=58-	=58-	=58-	=58-
.	.	1c	-a-	1cc	-a-	1ee	-a-
=59-	=59-	=59-	=59-	=59-	=59-	=59-	=59-
1r	.	2.g\	-ti	2.b\	-ti	2.dd\	-ti
!	!	!	!	!	!	!LO:SIC:v:t=custos dd	!
.	.	4a\	qui	4a\	qui	4cc\	qui
!	!	!	!	!	!	!LO:LB:g=original	!
=60-	=60-	=60-	=60-	=60-	=60-	=60-	=60-
1r	.	2g\	non	2b\	non	2dd\	non
.	.	2e\	vi-	2g\	vi-	2ee\	vi-
=61-	=61-	=61-	=61-	=61-	=61-	=61-	=61-
1r	.	1d	-de-	2a\	-de-	1ffny	-de-
.	.	.	.	2b\	.	.	.
=62-	=62-	=62-	=62-	=62-	=62-	=62-	=62-
2r	.	2.c/	.	1cc	-runt	2.ee\	.
2c\	et	.	.	.	.	.	.
.	.	8B/	.	.	.	8dd\	.
.	.	8A/	.	.	.	8cc\	.
=63-	=63-	=63-	=63-	=63-	=63-	=63-	=63-
4Bny\	cre-	1G	runt	2r	.	1dd	runt
*	*	*	*	*	*	*	*Xij
4A\	.	.	.	.	.	.	.
4B\	.	.	.	2g\	et	.	.
4c\	.	.	.	.	.	.	.
=64-	=64-	=64-	=64-	=64-	=64-	=64-	=64-
2d\	di-	1r	.	2f\	cre-	1r	.
!	!	!	!	!LO:SIC:v:t=custos d	!	!	!
4G\	.	.	.	2e/	-di-	.	.
!	!	!	!	!LO:LB:g=original	!	!	!
2c\	.	.	.	.	.	.	.
=65-	=65-	=65-	=65-	=65-	=65-	=65-	=65-
.	.	1r	.	1d	-de-	1r	.
8B\	.	.	.	.	.	.	.
8A\	.	.	.	.	.	.	.
!LO:SIC:v:t=custos c	!	!	!	!	!	!	!
2B\	-de-	.	.	.	.	.	.
!LO:LB:g=original	!	!	!	!	!	!	!
=66-	=66-	=66-	=66-	=66-	=66-	=66-	=66-
*lig	*	*	*	*	*	*	*
1c	-runt	1r	.	4c/	.	2r	.
.	.	.	.	4d/	.	.	.
.	.	.	.	4e/	.	2cc\	et
.	.	.	.	4d/	.	.	.
=67-	=67-	=67-	=67-	=67-	=67-	=67-	=67-
1G	.	2r	.	1d	-runt	4b/	cre-
.	.	.	.	.	.	4a/	.
.	.	2g\	et	.	.	4b/	.
.	.	.	.	.	.	4cc\	.
*Xlig	*	*	*	*	*	*	*
=68-	=68-	=68-	=68-	=68-	=68-	=68-	=68-
1r	.	2fny\	cre-	1r	.	2dd\	.
.	.	2e\	-di-	.	.	4g/	di-
.	.	.	.	.	.	2cc\	-de-
=69-	=69-	=69-	=69-	=69-	=69-	=69-	=69-
1r	.	1d	-de-	1r	.	.	.
.	.	.	.	.	.	8b/	.
.	.	.	.	.	.	8a/	.
.	.	.	.	.	.	2b/	.
=70-	=70-	=70-	=70-	=70-	=70-	=70-	=70-
1r	.	1c	-runt	1r	.	1cc	-runt
=71-	=71-	=71-	=71-	=71-	=71-	=71-	=71-
*M3/2	*	*M3/2	*	*M3/2	*	*M3/2	*
*met(O|)	*	*met(O|)	*	*met(O|)	*	*met(O|)	*
1.c	Al-	1.r	.	1c	Al-	1.r	.
.	.	.	.	1e\	-le-	.	.
=72-	=72-	=72-	=72-	=72-	=72-	=72-	=72-
2B\	-le-	1.r	.	.	.	1.r	.
1A	-lu-	.	.	1f#X	-lu-	.	.
=73-	=73-	=73-	=73-	=73-	=73-	=73-	=73-
0G	-ia	1.g	Al-	0g	-ia	1g	Al-
!	!	!	!	!	!	!LO:SIC:v:t=custos cc#	!
.	.	.	.	.	.	1b\	-le-
!	!	!	!	!	!	!LO:LB:g=original	!
=74-	=74-	=74-	=74-	=74-	=74-	=74-	=74-
!	!	!LO:SIC:v:t=custos e	!	!	!	!	!
.	.	2f\	-le-	.	.	.	.
!	!	!LO:LB:g=original	!	!	!	!	!
1r	.	1e	-lu-	1r	.	1cc#X	-lu-
=75-	=75-	=75-	=75-	=75-	=75-	=75-	=75-
*	*ij	*	*	*	*ij	*	*
1D	Al-	0d	-ia	1.fny	Al-	1.dd	.
1F\	-le-	.	.	.	.	.	.
=76-	=76-	=76-	=76-	=76-	=76-	=76-	=76-
.	.	.	.	2e/	-le-	2ccny\	.
1G	-lu-	1r	.	1d	-lu-	1b	-ia
=77-	=77-	=77-	=77-	=77-	=77-	=77-	=77-
*	*	*	*ij	*	*	*	*ij
0A	-ia	1c	Al-	0c	-ia	1.cc	Al-
.	.	1e\	-le-	.	.	.	.
=78-	=78-	=78-	=78-	=78-	=78-	=78-	=78-
.	.	.	.	.	.	2b/	le-
1r	.	1f#X	-lu-	1r	.	1a	-lu-
=79-	=79-	=79-	=79-	=79-	=79-	=79-	=79-
1.G	Al-	0g	-ia	1G	Al-	0b	-ia
.	.	.	.	1B/	-le-	.	.
=80-	=80-	=80-	=80-	=80-	=80-	=80-	=80-
2F/	-le-	.	.	.	.	.	.
1E	-lu-	1r	.	1c#X	-lu-	1r	.
=81-	=81-	=81-	=81-	=81-	=81-	=81-	=81-
0D	-ia	1d	Al-	0d	-ia	1.dd	Al-
.	.	1fny\	-le-	.	.	.	.
=82-	=82-	=82-	=82-	=82-	=82-	=82-	=82-
.	.	.	.	.	.	2cc\	-le-
1r	.	1g	-lu-	1r	.	1b	-lu-
=83-	=83-	=83-	=83-	=83-	=83-	=83-	=83-
1.A	Al-	0a	-ia	1A	Al-	0cc	-ia
.	.	.	.	1cny/	-le-	.	.
=84-	=84-	=84-	=84-	=84-	=84-	=84-	=84-
!LO:SIC:v:t=custos F	!	!	!	!	!	!	!
2G\	-le-	.	.	.	.	.	.
!LO:LB:g=original	!	!	!	!LO:SIC:v:t=custos e	!	!	!
1F	-lu-	1r	.	1d	-lu-	1r	.
!	!	!	!	!LO:LB:g=original	!	!	!
=85-	=85-	=85-	=85-	=85-	=85-	=85-	=85-
0E	-ia	1.g	Al-	0e	-ia	1g	Al-
.	.	.	.	.	.	1b\	-le-
=86-	=86-	=86-	=86-	=86-	=86-	=86-	=86-
.	.	2f\	-le-	.	.	.	.
1r	.	1e	-lu-	1r	.	1cc#X	-lu-
=87-	=87-	=87-	=87-	=87-	=87-	=87-	=87-
1.d	Al-	1.f	-ia	1d	Al-	0dd	-ia
.	.	.	.	1f\	le-	.	.
=88-	=88-	=88-	=88-	=88-	=88-	=88-	=88-
2c\	-le-	2e\	Al-	.	.	.	.
1B	-lu-	1d	-le-	1g	-lu-	1r	.
=89-	=89-	=89-	=89-	=89-	=89-	=89-	=89-
0A	-ia	1.c	-lu-	1.a	-ia	1ccny	Al-
.	.	.	.	.	.	1ee\	-le-
=90-	=90-	=90-	=90-	=90-	=90-	=90-	=90-
.	.	2B/	-ia	2b\	Al-	.	.
!	!	!LO:SIC:v:t=custos G	!	!	!	!	!
1r	.	1A	Al-	2cc\	-le-	1ff#X	-lu-
!	!	!LO:LB:g=original	!	!	!	!	!
.	.	.	.	2a\	-lu-	.	.
=91-	=91-	=91-	=91-	=91-	=91-	=91-	=91-
1r	.	1G	-le-	1b	-ia	1gg	-ia
!	!	!	!	!	!	!LO:SIC:v:t=custos b	!
1.G\	Al-	1d\	-lu-	1.b\	Al-	1g/	Al-
!	!	!	!	!	!	!LO:LB:g=original	!
=92-	=92-	=92-	=92-	=92-	=92-	=92-	=92-
.	.	.	.	.	.	.	.
.	.	1d	-ia	.	.	1b	-le-
2F/	-le-	.	.	2a\	-le-	.	.
=93-	=93-	=93-	=93-	=93-	=93-	=93-	=93-
!LO:TX:t=P:problem:kolor	!	!	!	!	!	!	!
1E	-lu-	1e	Al-	0g	-lu-	1cc#X	-lu-
!LO:TX:t=P:problem:kolor	!	!	!	!	!	!	!
0D/	-ia	0A/	-le-	.	.	0dd\	-ia
=94-	=94-	=94-	=94-	=94-	=94-	=94-	=94-
.	.	.	.	.	.	.	.
.	.	.	.	1f#X	.	.	.
=95-	=95-	=95-	=95-	=95-	=95-	=95-	=95-
1.r	.	1.c	-lu-	0g	ia	1.ee	Al-
=96-	=96-	=96-	=96-	=96-	=96-	=96-	=96-
1.r	.	2B/	.	.	.	2dd\	-le-
.	.	1A	.	1r	.	1ccny	-lu-
=97-	=97-	=97-	=97-	=97-	=97-	=97-	=97-
1G	Al-	0e	ia	1.g	Al-	0b	-ia
1B\	-le-	.	.	.	.	.	.
=98-	=98-	=98-	=98-	=98-	=98-	=98-	=98-
.	.	.	.	2fny\	-le-	.	.
1c	-lu-	1r	.	1e	-lu-	1r	.
=99-	=99-	=99-	=99-	=99-	=99-	=99-	=99-
2%5G	-ia	1.g	Al-	0d	-ia	1g	Al-
.	.	.	.	.	.	1b\	-le-
=100-	=100-	=100-	=100-	=100-	=100-	=100-	=100-
.	.	2f\	-le-	.	.	.	.
.	.	1e	-lu-	1r	.	1cc#X	-lu-
2r	.	.	.	.	.	.	.
=101-	=101-	=101-	=101-	=101-	=101-	=101-	=101-
1G	Al-	0d	-ia	1.g	Al-	0dd	-ia
1B\	-le-	.	.	.	.	.	.
=102-	=102-	=102-	=102-	=102-	=102-	=102-	=102-
.	.	.	.	2f\	-le-	.	.
!LO:SIC:v:t=custos B	!	!	!	!	!	!	!
1c	-lu-	1r	.	1e	-lu-	1.gg	Al-
=103-	=103-	=103-	=103-	=103-	=103-	=103-	=103-
!LO:TX:t=P:problem:kolor	!	!	!	!	!	!	!
!	!	!	!	!LO:TX:t=P:problem:kolor	!	!	!
1G	-ia	1r	.	1d	-ia	.	.
.	.	.	.	.	.	2ffny\	-le-
!LO:TX:t=P:problem:kolor	!	!	!	!LO:TX:t=P:problem:kolor	!	!	!
1C/	Al-	1.g\	Al-	0e\	Al-	1.ee\	-lu-
=104-	=104-	=104-	=104-	=104-	=104-	=104-	=104-
.	.	.	.	.	.	.	.
!LO:TX:t=P:problem:kolor	!	!	!	!	!	!	!
0E	-le-	.	.	.	.	.	.
.	.	2f\	-le-	.	.	2dd\	-Al-
=105-	=105-	=105-	=105-	=105-	=105-	=105-	=105-
!	!	!LO:TX:t=P:problem:kolor	!	!	!	!	!
.	.	1e	-lu-	0g	-le-	0ccny	-le-
!LO:TX:t=P:problem:kolor	!	!LO:TX:t=P:problem:kolor	!	!	!	!	!
0G\	-lu-	0d\	.	.	.	.	.
=106-	=106-	=106-	=106-	=106-	=106-	=106-	=106-
.	.	.	.	.	.	.	.
.	.	.	.	1d	-lu-	1b	-lu-
=107-	=107-	=107-	=107-	=107-	=107-	=107-	=107-
00C	-ia	00c/	-ia	00e	-ia	00cc	-ia
*	*Xij	*	*Xij	*	*Xij	*	*Xij
=108-	=108-	=108-	=108-	=108-	=108-	=108-	=108-
.	.	.	.	.	.	.	.
=109-	=109-	=109-	=109-	=109-	=109-	=109-	=109-
.	.	.	.	.	.	.	.
2r	.	2r	.	2r	.	2r	.
=-	=-	=-	=-	=-	=-	=-	=-
*-	*-	*-	*-	*-	*-	*-	*-
!!!system-decoration: [(s1,s2,s3,s4)]
!!!ENC: Marta Opryszak
!!!END: 2022-07-05
!!!ENC: Julita Ruszuk
!!!END: 2022-07-27
